svgs/sharp-light/spray-can-sparkles.svg

<svg xmlns="http://www.w3.org/2000/svg" viewBox="0 0 512 512"><!--! Font Awesome Pro 6.6.0 by @fontawesome - https://fontawesome.com License - https://fontawesome.com/license (Commercial License) Copyright 2024 Fonticons, Inc. --><path d="M128 32l0 64L96 96l0-64L96 0l32 0 64 0 32 0 0 32 0 64-32 0 0-64-64 0zm64 128l-64 0-32 0c-35.3 0-64 28.7-64 64l0 256 256 0 0-256c0-35.3-28.7-64-64-64l-32 0zM0 224c0-53 43-96 96-96l32 0 64 0 32 0c53 0 96 43 96 96l0 256 0 32-32 0L32 512 0 512l0-32L0 224zm208 96a48 48 0 1 0 -96 0 48 48 0 1 0 96 0zM80 320a80 80 0 1 1 160 0A80 80 0 1 1 80 320zM352 0l0 16 0 16 16 0 16 0 0 32-16 0-16 0 0 16 0 16-32 0 0-16 0-16-16 0-16 0 0-32 16 0 16 0 0-16 0-16 32 0zM480 16l0 16 16 0 16 0 0 32-16 0-16 0 0 16 0 16-32 0 0-16 0-16-16 0-16 0 0-32 16 0 16 0 0-16 0-16 32 0 0 16zm0 192l0 16 16 0 16 0 0 32-16 0-16 0 0 16 0 16-32 0 0-16 0-16-16 0-16 0 0-32 16 0 16 0 0-16 0-16 32 0 0 16zm-64-96l0 16 16 0 16 0 0 32-16 0-16 0 0 16 0 16-32 0 0-16 0-16-16 0-16 0 0-32 16 0 16 0 0-16 0-16 32 0 0 16z"/></svg>

<svg xmlns="http://www.w3.org/2000/svg" viewBox="0 0 512 512"><!--! Font Awesome Pro 6.4.2 by @fontawesome - https://fontawesome.com License - https://fontawesome.com/license (Commercial License) Copyright 2023 Fonticons, Inc. --><path d="M112 0h96 16V16 80 96H192V80 32H128V80 96H96V80 16 0h16zM96 160c-35.3 0-64 28.7-64 64V480H288V224c0-35.3-28.7-64-64-64H96zM0 224c0-53 43-96 96-96H224c53 0 96 43 96 96V480v32H288 32 0V480 224zM160 368a48 48 0 1 0 0-96 48 48 0 1 0 0 96zm0-128a80 80 0 1 1 0 160 80 80 0 1 1 0-160zM352 0V16 32h16 16V64H368 352V80 96H320V80 64H304 288V32l16 0h16V16 0h32zM480 16V32h16 16V64H496 480V80 96H448V80 64H432 416V32l16 0h16V16 0h32V16zm0 192v16h16 16v32H496 480v16 16H448V272 256H432 416V224h16 16V208 192h32v16zm-64-96v16h16 16v32H432 416v16 16H384V176 160H368 352V128h16 16V112 96h32v16z"/></svg>
